X: 21719
T: Kindagh Rish Ny Dangeryn Jeh'n Keayn
R: reel
M: 4/4
K: Eminor
E2|A2 G2 A2 Bc|d3c B2 B2|e2 f2 g2 fe|e2 B2 e2 B2|
e2 f2 g2 f2|e3d B2 G2|A2 Bc dc BA|G2 E2 E2 E2|
A2 G2 A2 Bc|d3c B2 B2|e2 f2 g2 fe|e2 B2 e2 B2|
e2 f2 g2 f2|e3d B2 G2|A2 Bc dc BA|G2 E2 E2||

